package/converter/svg/duotone/cart-flatbed-boxes.svg

<svg xmlns="http://www.w3.org/2000/svg" viewBox="0 0 640 512"><!-- Font Awesome Pro 6.0.0-alpha2 by @fontawesome - https://fontawesome.com License - https://fontawesome.com/license (Commercial License) --><defs><style>.fa-secondary{opacity:.4}</style></defs><path d="M224 320H352C369.6 320 384 305.6 384 288V64C384 46.4 369.6 32 352 32H224C206.4 32 192 46.4 192 64V288C192 305.6 206.4 320 224 320ZM448 160H512C529.6 160 544 145.6 544 128V64C544 46.4 529.6 32 512 32H448C430.4 32 416 46.4 416 64V128C416 145.6 430.4 160 448 160ZM448 320H576C593.6 320 608 305.6 608 288V224C608 206.4 593.6 192 576 192H448C430.4 192 416 206.4 416 224V288C416 305.6 430.4 320 448 320ZM162.875 448C161.125 453 160 458.375 160 464C160 490.5 181.5 512 208 512S256 490.5 256 464C256 458.375 254.75 453 253.125 448H162.875ZM451 448C449.25 453 448.125 458.375 448.125 464C448.125 490.5 469.625 512 496.125 512S544.125 490.5 544.125 464C544.125 458.375 542.875 453 541.25 448H451Z" class="fa-secondary"/><path d="M624 384H128V64C128 28.8 99.2 0 64 0H16C7.2 0 0 7.2 0 16V48C0 56.8 7.2 64 16 64H48C56.837 64 64 71.163 64 80V432C64 440.8 71.2 448 80 448H624C632.8 448 640 440.8 640 432V400C640 391.2 632.8 384 624 384Z" class="fa-primary"/></svg>

<svg xmlns="http://www.w3.org/2000/svg" viewBox="0 0 640 512"><!--! Font Awesome Pro 6.6.0 by @fontawesome - https://fontawesome.com License - https://fontawesome.com/license (Commercial License) Copyright 2024 Fonticons, Inc. --><defs><style>.fa-secondary{opacity:.4}</style></defs><path class="fa-secondary" d="M160 464c0 26.5 21.5 48 48 48s48-21.5 48-48c0-5.6-1-11-2.7-16l-90.5 0c-1.8 5-2.7 10.4-2.7 16zM192 64l0 224c0 17.7 14.3 32 32 32l128 0c17.7 0 32-14.3 32-32l0-224c0-17.7-14.3-32-32-32L224 32c-17.7 0-32 14.3-32 32zm224 0l0 64c0 17.7 14.3 32 32 32l64 0c17.7 0 32-14.3 32-32l0-64c0-17.7-14.3-32-32-32l-64 0c-17.7 0-32 14.3-32 32zm0 160l0 64c0 17.7 14.3 32 32 32l128 0c17.7 0 32-14.3 32-32l0-64c0-17.7-14.3-32-32-32l-128 0c-17.7 0-32 14.3-32 32zm32 240c0 26.5 21.5 48 48 48s48-21.5 48-48c0-5.6-1-11-2.7-16l-90.5 0c-1.8 5-2.7 10.4-2.7 16z"/><path class="fa-primary" d="M0 32C0 14.3 14.3 0 32 0L48 0c44.2 0 80 35.8 80 80l0 288c0 8.8 7.2 16 16 16l464 0c17.7 0 32 14.3 32 32s-14.3 32-32 32l-464 0c-44.2 0-80-35.8-80-80L64 80c0-8.8-7.2-16-16-16L32 64C14.3 64 0 49.7 0 32z"/></svg>
